assets/svg/1F202.svg

<svg xmlns="http://www.w3.org/2000/svg" viewBox="0 0 64 64" enable-background="new 0 0 64 64"><path fill="#1b75bb" d="M63.917,57.025c0,3.81-3.082,6.894-6.89,6.894H6.887C3.084,63.919,0,60.835,0,57.025V6.889    C0,3.086,3.084,0,6.887,0h50.14c3.808,0,6.89,3.086,6.89,6.889V57.025z"/><path fill="#0867a3" d="M0,48.67v8.355c0,3.81,3.084,6.894,6.887,6.894h50.14c3.808,0,6.89-3.084,6.89-6.894V6.889    C53.003,46.536,13.767,49.049,0,48.67z"/><path fill="#fff" d="m55.18 22.08h-10.53v-10.264c0-1.429-1.158-2.587-2.588-2.587-1.428 0-2.59 1.158-2.59 2.587v10.264h-16.673v-10.264c0-1.429-1.158-2.587-2.588-2.587-1.429 0-2.589 1.158-2.589 2.587v10.264h-8.878c-1.429 0-2.588 1.158-2.588 2.588 0 1.429 1.159 2.587 2.588 2.587h8.878v10.262c0 1.43 1.16 2.588 2.589 2.588 1.43 0 2.588-1.158 2.588-2.588v-10.262h16.674v10.229c-.131 3.514-1.279 11.897-9.115 14.538.004.021 0 .049.004.072-.795.429-1.356 1.241-1.356 2.207 0 1.397 1.139 2.536 2.539 2.536.274 0 .526-.078.775-.156.023.023.059.039.081.066 2.654-1.143 11.591-5.975 12.191-18.941.013-.101.06-.187.06-.289v-10.262h10.529c1.429 0 2.587-1.158 2.587-2.587-.0001-1.43-1.16-2.588-2.588-2.588"/></svg>

<?xml version="1.0" encoding="UTF-8" standalone="no"?>
<!-- Generator: Adobe Illustrator 16.0.0, SVG Export Plug-In . SVG Version: 6.00 Build 0)  -->

<svg
   xmlns:dc="http://purl.org/dc/elements/1.1/"
   xmlns:cc="http://creativecommons.org/ns#"
   xmlns:rdf="http://www.w3.org/1999/02/22-rdf-syntax-ns#"
   xmlns:svg="http://www.w3.org/2000/svg"
   xmlns="http://www.w3.org/2000/svg"
   xmlns:sodipodi="http://sodipodi.sourceforge.net/DTD/sodipodi-0.dtd"
   xmlns:inkscape="http://www.inkscape.org/namespaces/inkscape"
   version="1.1"
   id="Layer_1"
   x="0px"
   y="0px"
   width="64px"
   height="64px"
   viewBox="0 0 64 64"
   enable-background="new 0 0 64 64"
   xml:space="preserve"
   inkscape:version="0.48.5 r10040"
   sodipodi:docname="1F202.svg"
   inkscape:export-filename="D:\TESTINGEMOJI\SVGTEST\1F202.png"
   inkscape:export-xdpi="90"
   inkscape:export-ydpi="90"><metadata
   id="metadata4871"><rdf:RDF><cc:Work
       rdf:about=""><dc:format>image/svg+xml</dc:format><dc:type
         rdf:resource="http://purl.org/dc/dcmitype/StillImage" /><dc:title></dc:title></cc:Work></rdf:RDF></metadata><defs
   id="defs4869" /><sodipodi:namedview
   pagecolor="#ffffff"
   bordercolor="#666666"
   borderopacity="1"
   objecttolerance="10"
   gridtolerance="10"
   guidetolerance="10"
   inkscape:pageopacity="0"
   inkscape:pageshadow="2"
   inkscape:window-width="640"
   inkscape:window-height="480"
   id="namedview4867"
   showgrid="false"
   inkscape:zoom="3.6875"
   inkscape:cx="32"
   inkscape:cy="32"
   inkscape:window-x="462"
   inkscape:window-y="350"
   inkscape:window-maximized="0"
   inkscape:current-layer="Layer_1" />
<g
   id="g4857">
	<g
   id="g4859">
		<path
   fill="#1B75BB"
   d="M63.917,57.025c0,3.81-3.082,6.894-6.89,6.894H6.887C3.084,63.919,0,60.835,0,57.025V6.889    C0,3.086,3.084,0,6.887,0h50.14c3.808,0,6.89,3.086,6.89,6.889V57.025z"
   id="path4861" />
		<path
   fill="#0867A3"
   d="M0,48.67v8.355c0,3.81,3.084,6.894,6.887,6.894h50.14c3.808,0,6.89-3.084,6.89-6.894V6.889    C53.003,46.536,13.767,49.049,0,48.67z"
   id="path4863" />
	</g>
	<path
   fill="#FFFFFF"
   d="M55.177,22.079H44.647V11.815c0-1.429-1.158-2.587-2.588-2.587c-1.428,0-2.59,1.158-2.59,2.587v10.264   H22.796V11.815c0-1.429-1.158-2.587-2.588-2.587c-1.429,0-2.589,1.158-2.589,2.587v10.264H8.741c-1.429,0-2.588,1.158-2.588,2.588   c0,1.429,1.159,2.587,2.588,2.587h8.878v10.262c0,1.43,1.16,2.588,2.589,2.588c1.43,0,2.588-1.158,2.588-2.588V27.254H39.47v10.229   c-0.131,3.514-1.279,11.897-9.115,14.538c0.004,0.021,0,0.049,0.004,0.072c-0.795,0.429-1.356,1.241-1.356,2.207   c0,1.397,1.139,2.536,2.539,2.536c0.274,0,0.526-0.078,0.775-0.156c0.023,0.023,0.059,0.039,0.081,0.066   c2.654-1.143,11.591-5.975,12.191-18.941c0.013-0.101,0.06-0.187,0.06-0.289V27.254h10.529c1.429,0,2.587-1.158,2.587-2.587   C57.764,23.237,56.605,22.079,55.177,22.079z"
   id="path4865" />
</g>
</svg>
